X:361
T:Campbell's Farewell To Redcastle #1 
C:Joe Buchanan's Scottish Tome - Page 027.1
I:027 1
R:March
Z:Carl Allison
L:1/8
M:2/4
K:A
e | "A" A>B cd | "A" ea e>d | "A" cA A(B/c/) | "G" dB =GB |
"A" A>B cd | "A" ea e>d | "A" c(B/A/) "G" =GB | "A" A2 A<A :|
=g>f | "A" ea a=g/f/ | "A" ea e>d | "A" cA A(B/c/) | "G" d>B =G(=g/>f/) |
"A" ea a=g/f/ | "A" ea e>d | "A" c(B/A/) "G" =GB | "A" A2 A/<A/(=g/>f/) |
"A" ea a=g/f/ | "A" ea e>d | "A" cA A(B/c/) | "G" d>B =GB |
"A" (A/B/c/d/) (c/d/e/f/) | "A" (e/f/g/a/) (e>d) | "A" c(B/A/) "G" =GB | "A" A2 A<A |]

